!!!!SEGMENT: pl-kk--kk-i-314_anonim--virginis-proles.krn
!!!cenid: 17xx:2116
!!!COM: Anonim
!!!COM-rismid: pe30004985
!!!CDT:
!!!CNT:
!!!OTL: Virginis Proles
!!!PDT:
!!!AGN: Sacred
!!!SMS-siglum: PL-Kk
!!!SMS-shelfmark: Kk.I.314
!!!SMS-shelfwork: W
!!!SMS-variant:
!!!SMS-altvar:
!!!NIFC-rismid: 1001146225
!!!URL-scan: http://repozytorium.nifc.pl/skany/pl-kk-nut--i-314
!!!ONB-nifc:
**kern	**text	**text	**kern	**text	**kern	**text	**kern	**text	**kern	**text
*part5	*part5	*part5	*part4	*part4	*part3	*part3	*part2	*part2	*part1	*part1
*staff5	*staff5	*staff5	*staff4	*staff4	*staff3	*staff3	*staff2	*staff2	*staff1	*staff1
*Iempty	*	*	*Iempty	*	*Itenor	*	*Ialto	*	*Ivox	*
*I"Baſso Ripieno.	*	*	*I"Baſso.	*	*I"Tenore	*	*I"Alto.	*	*I"Canto.	*
*I'B rip	*	*	*I'B	*	*I'T	*	*I'A	*	*I'S	*
*clefF4	*	*	*clefF4	*	*clefC4	*	*clefC3	*	*clefC1	*
*k[]	*	*	*k[]	*	*k[]	*	*k[]	*	*k[]	*
*F:	*	*	*F:	*	*F:	*	*F:	*	*F:	*
*M3/2	*	*	*M3/2	*	*M3/2	*	*M3/2	*	*M3/2	*
=1	=1	=1	=1	=1	=1	=1	=1	=1	=1	=1
*	*	*	*	*	*2\right	*	*2\right	*	*2\right	*
!	!	!	!	!	!	!	!LO:TX:a:i:t=Tutti.	!	!	!
!	!	!	!	!	!LO:TX:a:i:t=T.	!	!LO:TX:t=P:problem:V wielkie, przed kluczem, na pocz. pięciolinii	!	!	!
!	!	!	!LO:TX:t=P:problem:V wielkie, przed kluczem, na pocz. pięciolinii	!	!	!	!	!	!LO:TX:t=P:problem:V wielkie, przed kluczem, na pocz. pięciolinii	!
!LO:TX:t=P:problem:V wielkie, przed kluczem, na pocz. pięciolinii	!	!	!LO:TX:a:i:t=Tutti.	!	!LO:TX:t=P:problem:V wielkie, przed kluczem, na pocz. pięciolinii	!	!	!	!	!
2.D/	V 1. ir-	3. Un-	2.D/	Vir-	2.A\	Vir-	2.fn\	Vir-	2.dd\	Vir-
!	!	!	!	!	!	!	!	!	!LO:TX:a:i:t=Tutti.	!
4C/	-gi-	-de	4C/	-gi-	4A\	-gi-	4f\	-gi-	4dd\	-gi-
2BBn/	-nis	nec	2BBn/	-nis	2d\	-nis	2g\	-nis	2dd\	-nis
=2	=2	=2	=2	=2	=2	=2	=2	=2	=2	=2
2.AA/	Pro-	mor-	(2.AA/	Pro-	1en\	Pro-	1a\	Pro-	1cc#X\	Pro-
4BB/	.	.	4BB/)	.	.	.	.	.	.	.
2C#X,</	-les	-tem	2C#X/	-les	2A/	-les,	2e\	-les	2cc#\	-les
=3	=3	=3	=3	=3	=3	=3	=3	=3	=3	=3
*2\right	*	*	*2\right	*	*	*	*	*	*	*
2.D\	O-	nec	2.D\	O-	2.f\	O-	(4d\	O-	2.a\	O-
.	.	.	.	.	.	.	4e\)	.	.	.
.	.	.	.	.	.	.	(4f\	-pi-	.	.
4E\	-pi-	a-	4E\	-pi-	4e\	-pi-	4g\)	.	4a\	-pi-
(4F\	-fex	-mi-	4F\	-fex	2d\	-fex	2a\	-fex	2a\	-fex
4G\)	.	.	4G\	.	.	.	.	.	.	.
=4	=4	=4	=4	=4	=4	=4	=4	=4	=4	=4
2A\	que	-ca	2A\	que	2c#X\	que	2e\	que	2a\	que
1B-X\	Ma-	mor-	1B-X\	Ma-	1d\	Ma-	2f\	.	2a\	Ma-
.	.	.	.	.	.	.	2g\	Ma-	2g/	.
=5	=5	=5	=5	=5	=5	=5	=5	=5	=5	=5
1.A\,<	-tris	-tis	1.A\,<	-tris	1.c#X\,<	-tris	1.e\,<	-tris:	1.a\	-tris:
=6	=6	=6	=6	=6	=6	=6	=6	=6	=6	=6
2F\	Vir-	mil-	2F\	Vir-	2cn\	Vir-	2f\	Vir-	2a\	Vir-
2.En\	-go	-le	2.En\	-go	2.c\	-go	2.g\	-go	2.g/	-go
4E\	quem	pae-	4E\	Quem	4B-X\	Quem	4g\	Quem	4g/	Quem
=7	=7	=7	=7	=7	=7	=7	=7	=7	=7	=7
1F\	geſ-	-na-	1F\	geſ-	1A\	geſ-	1f\	geſ-	1cc\	geſ-
2F\	-sit	-ru(m)	2F\	-sit	2A/	-sit	2f\	-sit	2cc\	-sit
=8	=8	=8	=8	=8	=8	=8	=8	=8	=8	=8
2.BB-X/	pe-	ge-	2.BB-X/	pe-	2.d\	pe-	2.f\	pe-	2.b-X\	pe-
4C/	-pe-	-ne-	4C/	-pe-	4c\	-pe-	4e\	-pe-	4b-\	-pe-
4D/	-rit-	-ra	4D/	-rit-	2B-X\	-rit-	(4f\	-rit-	2f/	-rit
4E/	.	.	4E/	.	.	.	4g\)	.	.	.
=9	=9	=9	=9	=9	=9	=9	=9	=9	=9	=9
2F\	-q(ue)	ex	2F\	-q(ue)	2A/	-q(ue)	2a\	-que	2f/	que
2BB-X/	Vir-	pa-	2BB-X/	Vir-	1G/	Vir-	2f\	Vir-	2b-X\	Vir-
2C/	.	.	2C/	.	.	.	2d\	.	(4g\	.
.	.	.	.	.	.	.	.	.	4cc\)	.
=10	=10	=10	=10	=10	=10	=10	=10	=10	=10	=10
1.F\,<	-go:	-u[e]	1.F\	-go:	1.A\	-go;	1.f\,<	-go,	1.cc\	-go
=11	=11	=11	=11||	=11	=11||	=11	=11	=11	=11	=11
!LO:LB:g=original	!	!	!LO:LB:g=original	!	!LO:LB:g=original	!	!LO:LB:g=original	!	!LO:LB:g=original	!
2.F\	Vir-	San-	2.F\	Vir-	2.cn\	Vir-	2.f\	Vir-	2.a\	Vir-
4E\	-gi-	-gui-	4E\	-gi-	4c\	-gi-	4g\	-gi-	4a\	-gi-
2D/	-nis	-ne	2D/	-nis	2d\	-nis	2f\	-nis	2bn\	-nis
=12	=12	=12	=12	=12	=12	=12	=12	=12	=12	=12
1C/	par-	[ef]fu-	1C/	par-	1en\	par-	1e\	par-	1cc\	par-
2C/	-tos	-sô	2C/	-tos	2e\	-tos	2e\	-tos	2cc\	-tos
=13	=13	=13	=13	=13	=13	=13	=13	=13	=13	=13
2.G\	Ca-	me-	2.G\	Ca-	2.c\	Ca-	2.g\	Ca-	2.bn\	ca-
4E\	-ni-	-ru-	4E\	-ni-	4d\	-ni-	4g\	-ni-	4cc\	-ni-
2F\	-m(us)	-it	2F\	-m(us)	2c\	-mus	2f\	-m(us)	2a\	-mus
=14	=14	=14	=14	=14	=14	=14	=14	=14	=14	=14
2D\	de-	se-	2D\	de-	4d\	de-	2f\	de-	2a\	de-
.	.	.	.	.	4c\	.	.	.	.	.
1E\	-co-	-re-	2E\	-co-	1Bn\	-co-	1e\	-co-	2a\	-co-
.	.	.	2EE/	.	.	.	.	.	2g#X/	.
=15	=15	=15	=15	=15	=15	=15	=15	=15	=15	=15
2AA,</	-ra(m)	-num	2AA,</	-râ	2A,</	-ra	2e,<\	-râ	1.a\	-râ
2A\	mor-	scan-	(2A\	mor-	(4cn\	mor-	(4e\	mor-	.	.
.	.	.	.	.	4B\	.	4d\	.	.	.
4G\	.	.	4Gn\	.	4c\	.	4e\)	.	.	.
4F\	.	.	4F\)	.	4d\)	.	4f\	.	.	.
=16	=16	=16	=16	=16	=16	=16	=16	=16	=16	=16
2E\	.	.	2E\	.	2e\	.	(2g\	.	2g/	mor-
1F\,<	-te	.	1F\,<	-te	2.d\	.	2.fn\	.	1a\	.
.	.	.	.	.	4c\	.	4e\)	.	.	.
=17	=17	=17	=17	=17	=17	=17	=17	=17	=17	=17
1G\	mor-	.	1G\	mor-	1Bn\	.	1d\	.	2.b-X\	.
.	.	.	.	.	.	.	.	.	4b-\	.
4F\	.	.	4F\	.	2c#X\	-te	2e\	-te	4a\	.
4E\	.	.	4E\	.	.	.	.	.	4g/	.
=18	=18	=18	=18	=18	=18	=18	=18	=18	=18	=18
(2.D\	.	-de-	(2.D\	.	2.d\	mor-	2.f\	mor-	2.f/	-te
4E\)	.	.	4E\)	.	4d,<\	-te	4g\	.	4g/	.
2F\	-te	-re	2F\	-te	[<2d\	Tri-	2a\	-te	2a\	Tri-
=19	=19	=19	=19	=19	=19	=19	=19	=19	=19	=19
2G\	Tri-	cae-	2G\	Tri-	2d\]	.	2e\	Tri-	2b-X\	-um-
2A\	-um-	.	2A\	-um-	2d\	-um-	1e\	-um-	1a\	.
2AA/	.	.	2AA/	.	2c#X\	.	.	.	.	.
=20	=20	=20	=20	=20	=20	=20	=20	=20	=20	=20
!LO:N:vis=0.	!	!	!LO:N:vis=0	!	!LO:N:vis=0.	!	!LO:N:vis=0.	!	!LO:N:vis=0.	!
1.D\;	-phos.	-lum.	1.D\;	-phos.	1.d\;	-phos.	1.f#X\;	-phos.	1.a\;	-phos.
=21||	=21||	=21||	=21||	=21||	=21||	=21||	=21||	=21||	=21||	=21||
*M3/2	*	*	*M3/2	*	*M3/2	*	*M3/2	*	*M3/2	*
!LO:LB:g=original	!	!	!LO:LB:g=original	!	!LO:LB:g=original	!	!LO:LB:g=original	!	!LO:LB:g=original	!
2D/	2. Haec	4. Hu-	2D/	Haec	2d\	Haec	2fn\	Haec	2a\	Haec
2D/	e-	-jus	2D/	e-	2d\	e-	2g\	e-	2b-X\	e-
2C/	-nim	o-	2C/	-nim	2en\	-nim	2a\	-nim	[<2a\	-nim
=22	=22	=22	=22	=22	=22	=22	=22	=22	=22	=22
1.BB-X/	pal-	-ra-	1.BB-X/	pal-	4f\	pal-	(2.d\	pal-	2a\]	.
.	.	.	.	.	4e\	.	.	.	.	.
.	.	.	.	.	1d\	.	.	.	2a\	pal-
.	.	.	.	.	.	.	8e\L	.	.	.
.	.	.	.	.	.	.	8f\J)	.	.	.
.	.	.	.	.	.	.	4e\	.	2g/	.
.	.	.	.	.	.	.	4d\	.	.	.
=23	=23	=23	=23	=23	=23	=23	=23	=23	=23	=23
1.AA/	-mae	-ta	1.AA/	-mae	1.c#X\	-mae	1.e\,<	-mae	1.a\,<	-mae
=24	=24	=24	=24	=24	=24	=24	=24	=24	=24	=24
2.F\	du-	De-	2.F\	du-	2.fn\	du-	2.a\	du-	2.ccn\	du-
4FF/	-pli-	-us	4FF/	-pli-	4e\	-pli-	4g\	-pli-	4cc\	-pli-
2BB-X/	-cis	al-	2BB-X/	-cis	(4d\	-cis	(4f\	-cis	2dd\	-cis
.	.	.	.	.	4e\)	.	4g\)	.	.	.
=25	=25	=25	=25	=25	=25	=25	=25	=25	=25	=25
2AA/	be-	-me	2AA/	be-	2f\	be-	2a\	be-	2cc\	be-
1C/	-a-	no-	1C/	-a-	2f\	-a-	1g\	-a-	2.cc\	-a-
.	.	.	.	.	2e\	.	.	.	.	.
.	.	.	.	.	.	.	.	.	4b-X\	.
=26	=26	=26	=26	=26	=26	=26	=26	=26	=26	=26
1.F\,<	-ta	-bis	1.F\	-ta	1.f\,	-ta	1.f\,<	-ta	1.a\	-ta
=27	=27	=27	=27	=27	=27	=27	=27	=27	=27	=27
2F\	Sor-	de-	2F\	Sor-	2c\	Sor-	2f\	Sor-	2a\	Sor-
2F\	-te	-bi-	2F\	-te	2d\	-te	2g\	-te	2bn\	-te
2En\	dum	-tas	2En\	dum	2en\	dum	2g\	dum	2cc#X\	dum
=28	=28	=28	=28	=28	=28	=28	=28	=28	=28	=28
1D\	ges-	pae-	1D\	ges-	1f\	ges-	(2.f\	ges-	1dd\	geſ-
.	.	.	.	.	.	.	4g\)	.	.	.
2C#X/	-tit	-nas	2C#X/	-tit	2e\	-tit	2a\	-tit	2a\	-tit
=29	=29	=29	=29	=29	=29	=29	=29	=29	=29	=29
2.D/	fra-	sce-	2.D/	fra-	2.d\	fra-	2.f\	fra-	2.a\	fra-
4C/	-gi-	-le-	4Cn/	-gi-	4A/	-gi-	4e\	-gi-	4a\	-gi-
2BBn/	-lem	-ru(m)	2BBn/	-lem	2B-X\	-lem	2d\	-lem	2g#X/	-lem
=30	=30	=30	=30	=30	=30	=30	=30	=30	=30	=30
2AA/	do-	re-	2AA/	do-	2A/	do-	2e\	do-	2cc\	do-
1E\	-ma-	-mit-	1E\	-ma-	2A/	-ma-	1e\	-ma-	1bn\	-ma-
.	.	.	.	.	2G#X/	.	.	.	.	.
=31-	=31	=31	=31	=31	=31	=31	=31	=31	=31	=31
!	!	!	!LO:SIC:v:t=custos A	!	!	!	!	!	!	!
1.AA/	-re	-te	1.AA/	-re	1.A\	-re	1.e\,<	-re	1.cc#X\	-re
=32	=32	=32	=32	=32	=32	=32	=32	=32	=32	=32
!LO:LB:g=original	!	!	!LO:LB:g=original	!	!LO:LB:g=original	!	!LO:LB:g=original	!	!LO:LB:g=original	!
2.A\	Cor-	ut	2.A\	Cor-	2.c\	Cor-	2.e\	Cor-	2.a\	Cor-
4F\	-po-	Ti-	4F\	-po-	4d\	-po-	4f\	-po-	4a\	-po-
2G\	-ris	-bi	2G\	-ris	2Bn\	-ris	2d\	-ris	2gn/	-ris
=33	=33	=33	=33	=33	=33	=33	=33	=33	=33	=33
1C/	se-	pu-	1C/	Se-	1c\	se-	1e\	se-	1g\	se-
2C/	-xu(m)	-ro	2C/	-xum	2c\	-xum,	2e\	-xum	2g/	-xum
=34	=34	=34	=34	=34	=34	=34	=34	=34	=34	=34
2.C/	do-	re-	2.C/	do-	4c\	do-	2.g\	do-	2.cc\	do-
.	.	.	.	.	4G\	.	.	.	.	.
.	.	.	.	.	4A\	-mu-	.	.	.	.
4D/	-mu-	-ſo-	4D/	-mu-	4Bn\	.	4f\	-mu-	4a\	-mu-
2E\	-it	-ne-	2E\	-it	2c,<\	-it	(4e\	-it	2g/	-it
.	.	.	.	.	.	.	4d\)	.	.	.
=35	=35	=35	=35	=35	=35	=35	=35	=35	=35	=35
2F\	cru-	-m(us)	2F\	cru-	2c\	Cru-	4f\	Cru-	2a\	Cru-
.	.	.	.	.	.	.	4e\	.	.	.
2G\	-en-	al-	2G\	-en-	2c\	-en-	1d\	-en-	1g\	-en-
2GG/	.	.	2GG/	.	2Bn\	.	.	.	.	.
=36	=36	=36	=36	=36	=36	=36	=36	=36	=36	=36
2C,</	-tum	-mum	2C,</	-tum	2c,<\	-tum	2e,<\	-tum	2g,</	-tum
2c\	Cae-	pe-	2c\	cae-	(2en\	Cae-	(4e\	cae-	(4g/	Cae-
.	.	.	.	.	.	.	4d\	.	4f/	.
4B-X\	.	.	(4B-X\	.	4d\	.	4e\)	.	4g/)	.
4A\	.	.	4A\)	.	4c\)	.	4f\	.	4a/	.
=37	=37	=37	=37	=37	=37	=37	=37	=37	=37	=37
1G\	.	.	1G\	.	2.B-X\	.	2g\	.	2.b-X\	.
.	.	.	.	.	.	.	(4d\	.	.	.
.	.	.	.	.	(4A\	.	4c\	.	(4b-\	.
4F\	.	.	(4F\	-de	4B-\	.	4d\	.	4a\	.
4E\	.	.	4E\)	.	4c\)	.	4e\)	.	4g\)	.
=38	=38	=38	=38	=38	=38	=38	=38	=38	=38	=38
(2.D\	.	.	2.D\	cae-	1d\	.	2.f\	.	2f/	.
.	.	.	.	.	.	.	.	.	2dd\	.
4E\)	.	.	4E\	.	.	.	4g\	.	.	.
(4F\	-de	-cto-	(4F\	-de	2d\	-de	2a\	-de	(4cc\	-de
4G\)	.	-re	4G\)	.	.	.	.	.	4b\)	.
=39	=39	=39	=39	=39	=39	=39	=39	=39	=39	=39
2A\	Ty-	Car-	2A\	Ty-	2c#X\	Ty-	2e\	Ty-	2a\	Ty-
2D/	-ran-	.	2D/	-ran-	1d\	-ran-	(2f#X\	-ran-	(2a\	-ran-
2G\	.	.	2G\	.	.	.	2g\)	.	2bn\)	.
=40	=40	=40	=40	=40	=40	=40	=40	=40	=40	=40
2C,</	-num	-men	2C,</	-num	2en,<\	-num.	2g,<\	-num	2ccn,<\	-num,
2c\	Cae-	pe-	2c\	Cae-	(4e\	Cae-	4g\	Cae-	(4cc\	Cae-
.	.	.	.	.	4f\	.	4a\	.	4dd\)	.
2B-X\	-de	.	(2B-X\	.	4e\	.	4g\	.	4cc\	.
.	.	.	.	.	4f\)	.	4a\	.	4dd\	.
=41	=41	=41	=41	=41	=41	=41	=41	=41	=41	=41
!LO:LB:g=original	!	!	!	!	!	!	!	!	!	!
2.A\	Cae-	-cto-	2.A\)	.	2.A\	.	(2.fn\	.	2.cc\	.
4G\	.	.	4G\	.	4B-X\	.	4g\)	.	4b-X\	.
!	!	!	!LO:SIC:v:t=custos en	!	!	!	!	!	!	!
2F\	.	-re	2F\	-de	2c\	-de	2a\	-de	2a\	-de
=42	=42	=42	=42	=42	=42	=42	=42	=42	=42	=42
!	!	!	!LO:LB:g=original	!	!LO:LB:g=original	!	!LO:LB:g=original	!	!LO:LB:g=original	!
*	*	*ij	*	*	*	*	*	*	*	*
2.En\	.	pe-	2.En\	Cae-	[<1.c\T	Ty-	(2.g\	Cae-	(1b-X\	Cae-
4D/	.	-cto-	4D/	.	.	.	4f\)	.	.	.
2C,</	-de	-re	2C/	.	.	.	2e\	-de	2cc\	.
=43	=43	=43	=43	=43	=43	=43	=43	=43	=43	=43
*	*	*Xij	*	*	*	*	*	*ij	*	*
2.F\	Cae-	pe-	2.F\	.	1.c\]	.	2.f\	Cae-	1cc\)	.
4G\	.	-cto-	4G\	.	.	.	4f,<\	-de	.	.
*	*	*	*	*	*	*	*	*Xij	*	*
2A\	-de	-re	2A\	-de	.	.	[<2f\	Ty-	2cc,<\	-de
=44	=44	=44	=44	=44	=44	=44	=44	=44	=44	=44
2B-X\	Ty-	Car-	2B-X\	Ty-	(4B-X\	-ran-	2f\]	.	2dd\	Ty-
.	.	.	.	.	4A\)	.	.	.	.	.
2c\	-ran-	.	2c\	-ran-	1G/	.	(2f\	-ran-	1cc\	-ran-
2C/	.	.	2C/	.	.	.	2e\)	.	.	.
=45	=45	=45	=45	=45	=45	=45	=45	=45	=45	=45
!LO:N:vis=0.	!	!	!LO:N:vis=0.	!	!LO:N:vis=0.	!	!LO:N:vis=0.	!	!LO:N:vis=0.	!
1.F\;	-num,	-men.	1.F\;	-num,	1.A\;	-num.	1.f\;	-num	1.cc\;	-num.
=46||	=46||	=46||	=46||	=46||	=46||	=46||	=46||	=46||	=46||	=46||
*M3/2	*	*	*M3/2	*	*M3/2	*	*M3/2	*	*M3/2	*
!LO:TX:t=P:problem:zgodnie z uzgodnieniem z JI do taktu 90 ukrywam fragment partii (AB)	!	!	!	!	!	!	!	!	!	!
!LO:TX:t=P:problem:takty 46-65 nie rozpisane nutami, tylko tekst zwrotki wpisany pod taktami 1-20	!	!	!	!	!	!	!	!	!	!
2.D/yy	3. Un-	.	2.D/	Un-	2A/	Un-	2.f\	Un-	2.dd\	Un-
.	.	.	.	.	2A/	-de	.	.	.	.
4C/yy	-de	.	4C/	-de	.	.	4f\	-de	4dd\	-de
2BBn/yy	nec	.	2BBn/	nec	2d\	nec	2g\	nec	2dd\	nec
=47	=47	=47	=47	=47	=47	=47	=47	=47	=47	=47
2.AA/yy	mor-	.	2.AA/	mor-	1en\	mor-	1a\	mor-	1cc#X\	mor-
4BB/yy	.	.	4BB/	.	.	.	.	.	.	.
2C#X,</yy	-tem	.	2C#X/	-tem	2A/	-tem	2e\	-tem	2cc#\	-tem
=48	=48	=48	=48	=48	=48	=48	=48	=48	=48	=48
2.D\yy	nec	.	2.D\	nec	2.f\	nec	(4d\	nec	2.a\	nec
.	.	.	.	.	.	.	4e\)	.	.	.
.	.	.	.	.	.	.	(4f\	a-	.	.
4E\yy	a-	.	4E\	a-	4e\	a-	4g\)	.	4a\	a-
(4F\yy	-mi-	.	(4F\	-mi-	2d\	-mi-	2a\	-mi-	2a\	-mi-
4G\)yy	.	.	4G\)	.	.	.	.	.	.	.
=49	=49	=49	=49	=49	=49	=49	=49	=49	=49	=49
2A\yy	-ca	.	2A\	-ca	2c#X\	-ca	2e,<\	-ca	2a,<\	-ca
1B-Xyy\	mor-	.	1B-X\	mor-	1d\	mor-	(2f\	mor-	(2a\	mo-
.	.	.	.	.	.	.	2g\)	.	2g/)	.
=50	=50	=50	=50	=50	=50	=50	=50	=50	=50	=50
1.A\,yy	-tis	.	1.A\,<	-tis	1.c#X\,<	-tis	1.e\,<	-tis	1.a\,<	-tis
=51	=51	=51	=51	=51	=51	=51	=51	=51	=51	=51
2F\yy	mil-	.	2F\	mil-	2cn\	mil-	2f\	mil-	2a\	mil-
2.En\yy	-le	.	2.En\	-le	2.c\	-le	2.g\	-le	2.g/	-le
4E\yy	pae-	.	4E\	pae-	4B-X\	pae-	4g\	pae-	4g/	pae-
=52	=52	=52	=52	=52	=52	=52	=52	=52	=52	=52
1Fyy\	-na-	.	1F\	-na-	1A\	-na-	1f\	-na-	1ccn\	-na-
!	!	!	!LO:SIC:v:t=custos BB-	!	!LO:SIC:v:t=custos d	!	!	!	!LO:SIC:v:t=custos b-	!
2F\yy	-ru(m)	.	2F\	-ru(m)	2A/	-rum	2f\	-rum	2cc\	-rum
=53	=53	=53	=53	=53	=53	=53	=53	=53	=53	=53
!	!	!	!LO:LB:g=original	!	!LO:LB:g=original	!	!LO:LB:g=original	!	!LO:LB:g=original	!
2.BB-X/yy	ge-	.	2.BB-X/	ge-	2.d\	ge-	2.f\	ge-	2.b-X\	ge-
4C/yy	-ne-	.	4C/	-ne-	4c\	-ne-	4e\	-ne-	4b-\	-ne-
4D/yy	.	.	4D/	-ra	4B-X\	-ra	(4f\	-ra	2f/	-ra
4E/yy	.	.	4E/	ex	4B-\	ex	4g\)	.	.	.
=54	=54	=54	=54	=54	=54	=54	=54	=54	=54	=54
!	!	!	!	!	!	!	!LO:N:vis=2.	!	!	!
2F\yy	-ra	.	2F\	pa-	2A/	pa-	2a\	ex	2f/	ex
2BB-X/yy	ex	.	2BB-X/	-ve-	1G/	-ve-	2f\	pa-	2b-X\	pa-
2C/yy	pa-	.	2C/	.	.	.	2e\	-ve-	(4g\	-ve-
.	.	.	.	.	.	.	.	.	4cc\)	.
=55	=55	=55	=55	=55	=55	=55	=55	=55	=55	=55
1.Fyy\	-v(e)	.	1.F\,<	-ſcens	1.A\,<	-ſcens	1.f\,<	-ſcens	1.cc\,<	-ſcens
=56	=56	=56	=56	=56	=56	=56	=56	=56	=56	=56
2.F\yy	San-	.	2.F\	San-	2.c\	san-	2.f\	San-	2.a\	San-
4E\yy	-gui-	.	4E\	-gui-	4c\	-gui-	4g\	-gui-	4a\	-gui-
4D\yy	-ne	.	4D\	-ne	4d\	-ne	4f\	-ne	4bn\	-ne
4D\yy	e-	.	4D\	e-	4d\	ef-	4f\	ef-	4b\	ef-
=57	=57	=57	=57	=57	=57	=57	=57	=57	=57	=57
1Cyy/	-fu-	.	1C/	-fu-	1en\	-fu-	1e\	-fu-	1cc\	-fu-
2C/yy	-so	.	2C/	-so	2e\	-so	2e\	-so	2cc\	-sô
=58	=58	=58	=58	=58	=58	=58	=58	=58	=58	=58
2.G\yy	me-	.	2.G\	me-	2.c\	me-	2.g\	me-	2.bn\	me-
4E\yy	-ru-	.	4E\	-ru-	4d\	-ru-	4g\	-ru-	4cc\	-ru-
2F\yy	-it	.	2F\	-it	2c\	-it	2f\	-it	2a\	-it
=59	=59	=59	=59	=59	=59	=59	=59	=59	=59	=59
2D\yy	se-	.	2D\	se-	4d\	se-	2f\	se-	2a\	se-
.	.	.	.	.	4c\	.	.	.	.	.
1Eyy\	-re-	.	1E\	-re-	1Bn\	-re-	1e\	-re-	(2a\	-re-
.	.	.	.	.	.	.	.	.	2g#X/)	.
=60	=60	=60	=60	=60	=60	=60	=60	=60	=60	=60
2AA,</yy	-num	.	2AA,</	-num	2A/,<	-num	2e\,<	-num	1.a\,<	-num
2A\yy	scan-	.	(2A\	scan-	(4c\	scan-	4e\	scan-	.	.
.	.	.	.	.	4B\	.	(4d\	.	.	.
4G\yy	.	.	4G\	.	4c\	.	4e\	.	.	.
4F\yy	.	.	4F\)	.	4d\)	.	4f\)	.	.	.
=61	=61	=61	=61	=61	=61	=61	=61	=61	=61	=61
2E\yy	.	.	2E\	.	2e\	.	2g\	.	2g/	scan-
1F\,yy	.	.	1F\	.	2.d\	.	(2.fn\	.	1a\	.
.	.	.	.	.	4c\	.	4e\)	.	.	.
=62	=62	=62	=62	=62	=62	=62	=62	=62	=62	=62
1Gyy\	.	.	1G\	.	2.Bn\	.	2.d\	.	2.b-X\	.
.	.	.	.	.	4B\	-de-	4d\	-de-	4b-\	.
4F\yy	.	.	4F\	.	2c#X\	-re	2e\	-re	4a\	.
4E\yy	.	.	4E\	.	.	.	.	.	4g\	.
=63	=63	=63	=63	=63	=63	=63	=63	=63	=63	=63
*	*	*	*	*	*	*ij	*	*ij	*	*
(2.D\yy	-de-	.	2.D\	.	2.d\	scan-	2.f\	scan-	2.f/	.
4E\)yy	.	.	4E\	-de-	4d\	-de-	4g\	-de-	4g/	-de-
2F\yy	-re	.	2F\	-re	[<2d\	-re	2a\	-re	2a\	-re
*	*	*	*	*	*	*Xij	*	*Xij	*	*
=64	=64	=64	=64	=64	=64	=64	=64	=64	=64	=64
2G\yy	cae-	.	2G\	cae-	2d\]	.	1.e\	Cae-	2b-X\	cae-
2A\yy	.	.	2A\	.	2d\	cae-	.	.	1a\	.
2AA/yy	.	.	2AA/	.	2c#X\	.	.	.	.	.
=65	=65	=65	=65	=65	=65	=65	=65-	=65	=65-	=65
!	!	!	!LO:N:vis=0.	!	!LO:N:vis=0.	!	!LO:N:vis=0	!	!LO:N:vis=0	!
1.D\;yy	-lum	.	1.D\;	-lum	1.d\;	-lum.	1.f#X\;	-lum.	1.a\;	-lum.
=66	=66	=66	=66||	=66	=66||	=66	=66||	=66	=66||	=66
*M3/2	*	*	*M3/2	*	*M3/2	*	*M3/2	*	*M3/2	*
!LO:TX:t=P:problem:takty 66-90 nie rozpisane nutami, tylko tekst zwrotki wpisany pod taktami 21-45	!	!	!LO:PB:g=original	!	!LO:PB:g=original	!	!LO:PB:g=original	!	!LO:PB:g=original	!
2D/yy	4. Hu-	.	2D/	Hu-	2d\	Hu-	2f\	Hu-	2a\	Hu-
2D/yy	-jus	.	2D/	-jus	2d\	-jus	2g\	.	2b-X\	.
2C/yy	o-	.	2C/	o-	2e\	o-	2a\	-jus	2a\	-jus
=67	=67	=67	=67	=67	=67	=67	=67	=67	=67	=67
1.BB-Xyy/	-ra-	.	1.BB-X/	-ra-	(4f\	-ra-	2.d/	o-	1a\	or-
.	.	.	.	.	4e\)	.	.	.	.	.
.	.	.	.	.	1d\	.	.	.	.	.
.	.	.	.	.	.	.	(8e/L	-ra-	.	.
.	.	.	.	.	.	.	8f/J	.	.	.
.	.	.	.	.	.	.	4e/)	.	2g\	-a-
.	.	.	.	.	.	.	4d/	.	.	.
=68	=68	=68	=68	=68	=68	=68	=68	=68	=68	=68
1.AAyy/	-tu	.	1.AA/	-tu	1.c#X\,<	-tu	1.e\	-tu	1.a\,<	-tu
=69	=69	=69	=69	=69	=69	=69	=69	=69	=69	=69
2.F\yy	De-	.	2.F\	DE-	2.f\	DE-	2.a\	DE-	2.ccn\	DE-
4FF/yy	-us	.	4FF/	-us	4e\	-us	4g\	-us	4cc\	-US
2BB-X/yy	al-	.	2BB-X/	al-	(4d\	al-	(4f\	al-	2dd\	.
.	.	.	.	.	4e\)	.	4g\)	.	.	.
=70	=70	=70	=70	=70	=70	=70	=70	=70	=70	=70
2AA/yy	-me	.	2AA/	-me	2f,<\	-me	2a\	-me	2cc\	al-
1Cyy/	no-	.	1C/	no-	2f\	no-	1g\	no-	2.cc\	-me
.	.	.	.	.	2e\	.	.	.	.	.
.	.	.	.	.	.	.	.	.	4b\	no-
=71	=71	=71	=71	=71	=71	=71	=71	=71	=71	=71
1.F\,yy	-bis	.	1.F\,<	-bis	1.f\,<	-bis	1.f\,<	-bis	1.a\	-bis
=72	=72	=72	=72	=72	=72	=72	=72	=72	=72	=72
2.F\yy	de-	.	2.F\	de-	2c\	de-	(2f\	de-	2a\	de-
.	.	.	.	.	4d\	.	4g\)	.	2bn\	-bi-
4F\yy	-bi-	.	4F\	-bi-	4d\	-bi-	4g\|	-bi-	.	.
2E\yy	-tas	.	2E\	-tas	2en\	-tas	2g\	-tas	2cc#X\	-tas
=73	=73	=73	=73	=73	=73	=73	=73	=73	=73	=73
1Dyy\	pae-	.	1D\	pae-	1f\	pae-	(2f\	pae-	1dd\	pae-
.	.	.	.	.	.	.	2g\)	.	.	.
2C#X/yy	-nas	.	2C#X/	-nas	2e\	-nas	2a\	-nas	2a\	-nas
=74	=74	=74	=74	=74	=74	=74	=74	=74	=74	=74
2.D/yy	sce-	.	2.D/	sce-	2.d\	sce-	2.f\	sce-	2a\	sce-
.	.	.	.	.	.	.	.	.	4a\	-le-
4C/yy	-le-	.	4C/	-le-	4A/	-le-	4e\	-le-	4a\	-rum
!	!	!	!	!	!	!	!LO:SIC:v:t=custos e	!	!LO:SIC:v:t=custos cc	!
2BBn/yy	-ru(m)	.	2BBn/	-rum	2B-X\	-rum	2d\	-rum	2g#X/	.
=75	=75	=75	=75	=75	=75	=75	=75	=75	=75	=75
!	!	!	!	!	!LO:LB:g=original	!	!LO:LB:g=original	!	!LO:LB:g=original	!
2AA/yy	re-	.	2AA/	re-	2A/	re-	2e\	re-	2cc\	re-
1Eyy\	-mit-	.	1E\	-mit-	2A/	-mit-	1e\	-mit-	1bn\	-mit-
.	.	.	.	.	2G#X/	.	.	.	.	.
=76	=76	=76	=76	=76	=76	=76	=76	=76	=76	=76
1.AAyy/	-te	.	1.AA/	-te	1.A\,<	-te	1.e\,<	-te	1.cc#\,<	-te
=77	=77	=77	=77	=77	=77	=77	=77	=77	=77	=77
!	!	!	!LO:LB:g=original	!	!	!	!	!	!	!
2.A\yy	Ut	.	2.A\	Ut	2.cn\	Ut	2.e\	Ut	2.a\	Ut
4F\yy	Ti-	.	4F\	Ti-	4d\	Ti-	4f\	Ti-	4a\	Ti-
2G\yy	-bi	.	2G\	-bi	2Bn\	-bi	2d\	-bi	2g/	-bi
=78	=78	=78	=78	=78	=78	=78	=78	=78	=78	=78
1Cyy/	pu-	.	1C/	pu-	1c\	pu-	1e\	pu-	1g\	pu-
2C,</yy	-ro	.	2C,</	-ro	2c\	-ro	2e\	-ro	2g/	-ro
=79	=79	=79	=79	=79	=79	=79	=79	=79	=79	=79
2.C/yy	re-	.	2.C/	re-	(4c\	re-	2.g\	re-	2.cc\	re-
.	.	.	.	.	4G\	.	.	.	.	.
.	.	.	.	.	4A\)	.	.	.	.	.
4D/yy	-ſo-	.	4D/	-ſo-	4B\	-ſo-	4f\	-ſo-	4a\	-ſo-
2E\yy	-ne-	.	2E\	-ne-	2c\	-ne-	4e\	-ne-	2g/	-ne-
.	.	.	.	.	.	.	4d\	.	.	.
=80	=80	=80	=80	=80	=80	=80	=80	=80	=80	=80
2F\yy	-m(us)	.	2F,<\	-mus	2c,<\	-m(us)	4f\	-mus	2a\	-mus
.	.	.	.	.	.	.	4e\	.	.	.
2G\yy	al-	.	(2G\	al-	(2c\	al-	1d\	al-	1g\	al-
2GG/yy	.	.	2GG/)	.	2Bn\)	.	.	.	.	.
=81	=81	=81	=81	=81	=81	=81	=81	=81	=81	=81
2C,</yy	-mum	.	2C,</	-mum	2c,<\	-mum	2e,<\	-mum	2g,</	-mum
2c\yy	pe-	.	2c\	pe-	2en\	pe-	(4e\	pe-	(4g/	pe-
.	.	.	.	.	.	.	4d\	.	4f/	.
4B-X\yy	.	.	(4B-X\	.	4d\	.	4e\)	.	4g/)	.
4A\yy	.	.	4A\)	.	4c\	.	4f\	.	4a/	.
=82	=82	=82	=82	=82	=82	=82	=82	=82	=82	=82
1Gyy\	.	.	1G\	.	(2.B-X\	.	2g\	.	2.b-X\	.
.	.	.	.	.	.	.	(4d\	.	.	.
.	.	.	.	.	4A\	.	4c\	.	4b-\	-cto-
4F\yy	.	.	4F\	.	4B-\)	.	4d\	.	(4a\	-re
4E\yy	.	.	4E\	.	4c\	.	4e\)	.	4g\)	.
=83	=83	=83	=83	=83	=83	=83	=83	=83	=83	=83
(2.D\yy	.	.	2.D\	-cto-	2.d\	.	2.f\	.	(2f/	Car-
.	.	.	.	.	.	.	.	.	2dd\)	.
4E\)yy	.	.	4E\	-re	4d\	-cto-	4g\	-cto-	.	.
!	!	!	!	!	!	!	!LO:SIC:v:t=custos e	!	!	!
(4F\yy	-cto-	.	(4F\	.	2d\	-re	2a\	-re	4cc\	.
!	!	!	!	!	!	!	!	!	!LO:SIC:v:t=custos a	!
4G\)yy	-re	.	4G\)	.	.	.	.	.	4b\	.
=84	=84	=84	=84	=84	=84	=84	=84	=84	=84	=84
!	!	!	!	!	!LO:LB:g=original	!	!LO:LB:g=original	!	!LO:LB:g=original	!
2A\yy	Car-	.	(2A\	Car-	2c#X\	Car-	(2e\|	Car-	1a\	.
2D/yy	.	.	2D/)	.	1d\	.	2f#X\)	.	.	.
2G\yy	.	.	2G\	.	.	.	2g\	.	2bn\	.
=85	=85	=85	=85	=85	=85	=85	=85	=85	=85	=85
2C,</yy	-men	.	2C,</	-men	2e,<\	-men	2g,<\	-men	2cc,<\	-men,
2c\yy	pe-	.	2c\	pe-	(4e\	pe-	(4g\	pe-	(4cc\	pe-
.	.	.	.	.	4f\	.	4a\	.	4dd\)	.
2B-X\yy	.	.	2B-X\	.	4e\)	.	4g\)	.	(4cc\	.
.	.	.	.	.	4f\	.	4a\	.	4dd\)	.
=86	=86	=86	=86	=86	=86	=86	=86	=86	=86	=86
2.A\yy	-cto-	.	2.A\	.	2.A/	.	2.fn\	.	2.cc\	.
4G\yy	-re	.	4G\	-cto-	4B-X\	-cto-	4g\	-cto-	4b-X\	-cto-
2F\yy	.	.	2F\	-re	2c\	-re	2a\	-re	2a\	-re
=87	=87	=87	=87	=87	=87	=87	=87	=87	=87	=87
*	*	*	*	*	*	*	*	*ij	*	*
2.En\yy	/pec-	.	2.En\	pec-	[<1.c\	pec-	2.g\	pe-	(1b-X\	pe-
4D/yy	-to-	.	4D/	-to-	.	.	4f\	-cto-	.	.
2C,</yy	-re/	.	2C/	-re	.	.	2e\	-re	2cc\)	.
*	*	*	*	*ij	*	*	*	*Xij	*	*
=88	=88	=88	=88	=88	=88	=88	=88	=88	=88	=88
2.F\yy	pec-	.	2.F\	pec-	2.c\]	.	2.f\	pe-	2.cc\	.
4G\yy	-to-	.	4G\	-to-	4c\	-cto-	4f\	-cto-	4cc\	-cto-
2A\yy	-re	.	2A\	-re	2c\	-re	[<2f\	-re	2cc\	-re
*	*	*	*	*Xij	*	*	*	*	*	*
=89	=89	=89	=89	=89	=89	=89	=89	=89	=89	=89
2B-X\yy	Car-	.	2B-X\	Car-	(4B-X\	Car-	2f\]	.	2dd\	Car-
.	.	.	.	.	4A\)	.	.	.	.	.
2c\yy	.	.	2c\	.	1G/	.	2f\	Car-	1cc\	.
2C/yy	.	.	2C/	.	.	.	2e\	.	.	.
=90	=90	=90	=90	=90	=90	=90	=90	=90	=90	=90
!	!	!	!	!	!LO:N:vis=0.	!	!LO:N:vis=0.	!	!LO:N:vis=0.	!
1.F\;yy	-men.	.	1.F\	-men.	1.A\;	-men	1.f\;	-men.	1.cc\;	-men.
=91||	=91||	=91||	=91||	=91||	=91||	=91||	=91||	=91||	=91||	=91||
*M3/2	*	*	*M3/2	*	*M3/2	*	*M3/2	*	*M3/2	*
!	!	!	!	!	!LO:LB:g=original	!	!LO:LB:g=original	!	!LO:LB:g=original	!
2D/	Sit	.	2D/	Sit	2A/	Sit	2f\	Sit	2dd\	Sit
4D/	de-	.	4D/	de-	2A/	de-	2f\	de-	2dd\	de-
4C/	.	.	4C/	.	.	.	.	.	.	.
2BBn/	-cus	.	2BBn/	-cus	2d\	-cus	2g\	-cus	2dd\	-cus
=92	=92	=92	=92	=92	=92	=92	=92	=92	=92	=92
2.AA/	Pa-	.	2.AA/	Pa-	1en\	Pa-	1a\	Pa-	1cc#X\	Pa-
4BB/	.	.	4BB/	.	.	.	.	.	.	.
2C#X/	-tri	.	2C#X/	-tri	2A/	-tri	2e\	-tri	2cc#\	-tri
=93	=93	=93	=93	=93	=93	=93	=93	=93	=93	=93
2.D\	ge-	.	2.D\	ge-	2.f\	ge-	(4d\	Ge-	2.a\	ge-
.	.	.	.	.	.	.	4e\)	.	.	.
.	.	.	.	.	.	.	(4f\	-nit	.	.
4E\	-nit	.	4E\	-nit	4e\	-nit	4g\)	.	4a\	-nit
4F\	ae-	.	(4F\	ae-	2d\	ae-	2a\	ae-	2a\	ae-
4G\	.	.	4G\)	.	.	.	.	.	.	.
=94	=94	=94	=94	=94	=94	=94	=94	=94	=94	=94
!LO:LB:g=original	!	!	!	!	!	!	!	!	!	!
2A\	-que	.	2A\	-que	2c#X\	-q(ue)	2e,<\	-q(ue)	2a,<\	-que
1B-X\	Pro-	.	1B-X\	Pro-	1d\	Pro-	(2f\	Pro-	2a\	Pro-
.	.	.	.	.	.	.	2g\)	.	2g/	.
=95	=95	=95	=95	=95	=95	=95	=95	=95	=95	=95
1.A\,<	-li.	.	1.A\,<	-li,	1.c#X\,<	-li:	1.e\,<	-li.	1.a\,<	-li
=96	=96	=96	=96	=96	=96	=96	=96	=96	=96	=96
!	!	!	!LO:LB:g=original	!	!	!	!	!	!	!
2F\	et	.	2F\	et	2cn\	et	2f\	et	2a\	et
2.En\	Ti-	.	2.En\	Ti-	2.c\	Ti-	2.g\	Ti-	2.g/	Ti-
4E\	-bi	.	4E\	-bi	4B-X\	-bi	4g\	-bi	4g/	-bi
=97	=97	=97	=97	=97	=97	=97	=97	=97	=97	=97
1F\	com-	.	1F\	com-	1A\	com-	1fn\	com-	1cc\	com-
!	!	!	!	!	!LO:SIC:v:t=custos d	!	!	!	!LO:SIC:v:t=custos b	!
2F\	-par	.	2F\	-par	2A/	-pax	2f\	-par	2cc\	-par
=98	=98	=98	=98	=98	=98	=98	=98	=98	=98	=98
2.BB-X/	u-	.	2.BB-X/	u-	2.d\	U-	2.f\	u-	2.b-X\	u-
4C/	-tri-	.	4C/	-tri-	4c\	-tri-	4e\	-tri-	4b-\	-tri-
(4D/	-us-	.	(4D/	-us-	2B-X\	-us-	(4f\	-us-	2f/	-us-
4E/)	.	.	4E/)	.	.	.	4g\)	.	.	.
=99	=99	=99	=99	=99	=99	=99	=99	=99	=99	=99
2F\	-q(ue)	.	2F\	-q(ue)	2A/	-que	2a,<\	-que	2f/	-q(ue)
2BB-X/	Vir-	.	(2BB-X/	Vir-	1G/	Vir-	(2f\	Vir-	2b-X\	Vir-
2C/	.	.	2C/)	.	.	.	2e\)	.	(4g\	.
.	.	.	.	.	.	.	.	.	4cc\)	.
=100	=100	=100	=100	=100	=100	=100	=100	=100	=100	=100
!	!	!	!	!	!LO:SIC:v:t=custos cn	!	!	!	!	!
1.F\,<	-tus	.	1.F\,<	-tus	1.A\	-tus	1.f\,<	-tus	1.cc\	-tus
=101	=101	=101	=101	=101	=101	=101	=101	=101	=101	=101
!	!	!	!	!	!LO:LB:g=original	!	!LO:LB:g=original	!	!LO:LB:g=original	!
2.F\	Spi-	.	2.F\	Spi-	2.c\	Spi-	2.f\	Spi-	2.a\	Spi-
4E\	-ri-	.	4E\	-ri-	4c\	-ri-	4g\	-ri-	4a\	-ri-
2D\	-t(us)	.	2D/	-tus	2d\	-tus	2f\	-tus	2bn\	-tus
=102	=102	=102	=102	=102	=102	=102	=102	=102	=102	=102
1C/	sem-	.	1C/	sem-	1en\	sem-	1e\	Sem-	1cc\	sem-
2C/	-per	.	2C/	-per	2e\	-per	2e\	-per	2cc\	-per
=103	=103	=103	=103	=103	=103	=103	=103	=103	=103	=103
2.G\	De-	.	2.G\	De-	2.c\	DE-	2.g\	DE-	2.bn\	DE-
4E\	-(us)	.	4E,<\	-us	4e\	-(us)	4g\	-us	4cc\	-Us
2F\	u-	.	2F\	u-	2c\	u-	2f\	u-	2a\	u-
=104	=104	=104	=104	=104	=104	=104	=104	=104	=104	=104
!LO:LB:g=original	!	!	!	!	!	!	!	!	!	!
2D\	-n(us)	.	2D,<\	-n(us)	4d\	-nus	2f\	-n(us)	2a\	-n(us)
.	.	.	.	.	4c\	.	.	.	.	.
1E\	o-	.	2E\	o-	(4Bn\	o-	1e\	om-	2a\	O-
.	.	.	.	.	4A\	.	.	.	.	.
!	!	!	!LO:SIC:v:t=custos A	!	!	!	!	!	!	!
.	.	.	2EE/	.	2B\)	.	.	.	2g#X/	.
=105	=105	=105	=105	=105	=105	=105	=105	=105	=105	=105
!	!	!	!LO:LB:g=original	!	!	!	!	!	!	!
2AA,</	-mni	.	2AA,</	-mni	2A/,<	-mni	2e,<\	-ni	1.a\	-mni
2A\	Tem-	.	2A\	Tem-	(4c\	Tem-	(4e\	Tem-	.	.
.	.	.	.	.	4B\	.	4d\	.	.	.
4G\	.	.	4G\	.	4c\	.	4e\	.	.	.
4F\	.	.	4F\	.	4d\)	.	4f\)	.	.	.
=106	=106	=106	=106	=106	=106	=106	=106	=106	=106	=106
2E\	.	.	2E\	.	2e\	.	2g\	.	2g\	Tem-
1F\	.	.	1F\	.	2.d\	.	2.fn\	.	1a\	.
.	.	.	.	.	4c\	.	4e\	.	.	.
=107	=107	=107	=107	=107	=107	=107	=107	=107	=107	=107
(1G\	.	.	2.G\	.	2.B\	.	2.d\	.	2.b-X\	.
.	.	.	4G\	.	4B\	-po-	4d\	-po-	4b-\	.
4F\	.	.	4F\	.	2c#X\	-ris	2e\	-ris	4a\	.
4E\)	.	.	4E\	.	.	.	.	.	4g\	.
=108	=108	=108	=108	=108	=108	=108	=108	=108	=108	=108
*	*	*	*	*	*	*ij	*	*ij	*	*
2.D\	-po-	.	2.D\	-po-	2.d\	Tem-	2.f\	Tem-	2.f/	-po-
4E\	-ris	.	4E\	-ris	4d\	-po-	4g\	-po-	4g\	-ris
2F,<\	.	.	2F\	.	2d\	-ris	2a\	-ris	2a\	.
*	*	*	*	*	*	*Xij	*	*Xij	*	*
=109	=109	=109	=109	=109	=109	=109	=109	=109	=109	=109
(2G\	ae-	.	2G\	ae-	1d\	ae-	1.e\	ae-	2b-X\	ae-
2A\)	.	.	2A\	.	.	.	.	.	1a\	.
2AA/	.	.	2AA/	.	2c#X\	.	.	.	.	.
=110	=110	=110	=110	=110	=110	=110	=110	=110	=110	=110
!	!	!	!LO:N:vis=0.	!	!	!	!LO:N:vis=0	!	!	!
1.D\	-vo.	.	1.D\;	-vo.	1.d\;	-vo.	1.f#X\;,<	-vo.	1.a\;,<	-vo.
=111||	=111||	=111||	=111||	=111||	=111||	=111||	=111||	=111||	=111||	=111||
!LO:N:vis=0	!	!	!LO:N:vis=0	!	!LO:N:vis=0	!	!LO:N:vis=0	!	!LO:N:vis=0	!
1.GG/	a-	.	1.G\	a-	1.G/	a-	1.d\;	a-	1.b-X\	A-
=112-	=112-	=112-	=112-	=112-	=112-	=112-	=112-	=112-	=112-	=112-
!LO:N:vis=0	!	!	!LO:N:vis=0.	!	!LO:N:vis=0	!	!LO:N:vis=0	!	!LO:N:vis=0.	!
1.D\;	-men.	.	1.D\;	-men.	1.F#X/;	-men.	1.d\;	-men.	1.a\;	-men.
!	!	!	!LO:TX:b:i:t=O ad M. D. Gm	!	!LO:TX:b:i:t=O. ad M. D. Gm.	!	!LO:TX:b:i:t=O ad M D. Gm	!	!LO:TX:b:i:t=O ad M.D. Gm.	!
==	==	==	==	==	==	==	==	==	==	==
*-	*-	*-	*-	*-	*-	*-	*-	*-	*-	*-
!!!system-decoration: [(s1,s2,s3,s4,s5)]
!!!RDF**kern: > = above
!!!RDF**kern: < = below
!!!RDF**kern: | = vertical stroke
!!!EED: Andrzej Borzym
!!!EST: 2021-04-08
!!!ENC: Mateusz Solarz
!!!END: 2021-03-15
